X: 1
T: The Maid of the Mill (C)
R: jig
Z: 2006 John Chambers <jc@trillian.mit.edu>
M: 6/8
L: 1/8
K: C
G \
| "C"Gcc      cec |  "G"Bcd  "C"g2e/c/ \
| "F"A>AA "G7"ABG |  "C"c3      c2y :::||: c \
| "C"ceg      gag | "G7"gfe     f2e |
|"G7"d>ef  "C"g2c |  "C"c3  "G7"B2G \
| "F"ABc  "Dm"f2d | "G7"B>Gd "C"g2e/c/ \
| "F"A>AA "G7"ABG | "C"c3       c2 :|
